X:121
T:Mrs. MacInroy of Lude
R:Strathspey
C:Joseph Lowe
S:MacDonald - Skye Collection
N:pg.61
M:C
L:1/8
K:B Minor
c2|B>bb>^a b<f f>^g|a>fe>a c<A f/e/d/c/|B<b b>^f b<ff<b|a>fe>c B/B/B ~B:|
f|d<B f>B b>bf>B|c<A e>c a>A f/e/d/c/|d<B~f>B b>B f<b|a>f e<c B/B/B B>f|
d<B ~f>B b>Bf>B|c<A e>c a>Ae>c|(3Bcd (3cde (3def (3efg|(3fed (3edc d<BB||
